lib/functional/brands/twitch-logo.svg

<svg xmlns="http://www.w3.org/2000/svg" fill="none" stroke="currentColor" aria-hidden="true" viewBox="0 0 32 32"><g id="Icon-TwitchLogo"><g clip-path="url(#clip0_11_3487)"><g id="size=md (32px)"><path id="Vector" stroke-linecap="round" stroke-linejoin="round" stroke-width="2" d="M20.6375 25H15.3625C15.1284 25.0001 14.9021 25.0844 14.725 25.2375L9 30V25H6C5.73478 25 5.48043 24.8946 5.29289 24.7071C5.10536 24.5196 5 24.2652 5 24V6C5 5.73478 5.10536 5.48043 5.29289 5.29289C5.48043 5.10536 5.73478 5 6 5H26C26.2652 5 26.5196 5.10536 26.7071 5.29289C26.8946 5.48043 27 5.73478 27 6V19.5375C26.998 19.6832 26.9646 19.8267 26.902 19.9583C26.8395 20.0899 26.7492 20.2065 26.6375 20.3L21.275 24.7625C21.0979 24.9156 20.8716 24.9999 20.6375 25V25Z"/><path id="Vector_2" stroke-linecap="round" stroke-linejoin="round" stroke-width="2" d="M21 11V17"/><path id="Vector_3" stroke-linecap="round" stroke-linejoin="round" stroke-width="2" d="M15 11V17"/></g></g></g><defs><clipPath id="clip0_11_3487"><rect width="32" height="32" fill="white" rx="5"/></clipPath></defs></svg>

<svg xmlns="http://www.w3.org/2000/svg" fill="none" stroke="currentColor" aria-hidden="true" viewBox="0 0 32 32"><g stroke="#101828" stroke-linecap="round" stroke-linejoin="round" stroke-width="2" clip-path="url(#a)"><path d="M20.637 25h-5.274a.975.975 0 0 0-.638.238L9 30v-5H6a1 1 0 0 1-1-1V6a1 1 0 0 1 1-1h20a1 1 0 0 1 1 1v13.538a1.012 1.012 0 0 1-.363.762l-5.362 4.462a.975.975 0 0 1-.637.238v0ZM21 11v6m-6-6v6"/></g><defs><clipPath id="a"><rect width="32" height="32" fill="#fff" rx="5"/></clipPath></defs></svg>
